X:1
T:Title
%%score { ( 1 3 ) | 2 }
L:1/8
M:6/8
K:Ab
V:1 treble nm="Grand Piano"
V:3 treble 
V:2 bass 
V:1
 z3 z2[Q:1/4=90] [CE] | [CE][_C=D][=CE] [_DF][Fd][Ec] | [Ec]3 [EB]2 [EA] | [FA][EG]F DG>F | %4
 [CE]3- [CE]2 [CE] | [CE][_C=D][=CE] [_DF][Fd][Ec] | [=Dc]3 [DB]2 [DA] | %7
 [EG][GB][Ge] [A=d]>[Ac][Ad] | [Ge]3- [Ge]2 [Ge] | [Gd][Gc][GB] AGF | [=Ec]3 [Ec]2 [Ec] | cBA AGF | %12
 G3- G2 F | [CE][_C=D][=CE] [_DF][Fd][_Gc] | [Fe]3 [Fd]2 F | Gd>c BF>G | %16
[M:5/8] [A,CA]-[A,CA]- [A,CA]3 |[M:1/8] c |[M:3/4] cB cd cd | e4 z2 | cd ee dc | [GB]4- [GB][DE] | %22
 [CE][_C=D] [=CE][_DF] [Fd][_Gc] | [Fe]3 [Fd]2 F | Gd- d/c/B F>G | %25
[M:13/8] [CA]-[CA]- [CA]3 z z z z z z z2 |] %26
V:2
 z3 z2 [A,,A,] | [A,,A,][A,,A,][A,,A,] [A,,A,][A,,A,][A,,A,] | [E,A,]3 [E,G,]2 [C,A,] | %3
 [D,A,][D,A,][D,A,D] [D,F,][D,A,D]>[D,A,D] | [A,,A,]3- [A,,A,]2 [A,,A,] | %5
 [A,,A,][A,,A,][A,,A,] [A,,A,][A,,A,][A,,A,] | [B,,A,]3 [B,,A,]2 [B,,F,] | %7
 [B,,E,][B,,E,][B,,E,] [B,,F,]>[B,,F,][B,,B,] | [E,B,]3- [E,B,]2 [E,B,] | %9
 [E,B,][E,E][=E,D] [F,CF][F,B,C][F,A,] | [C,G,]3 [C,G,]2 [C,G,] | %11
 [A,F][G,C=E][K:bass][F,CF] [F,CF][=E,B,C][F,B,=D] | [E,B,E]3- [E,B,E]2 [E,G,D] | %13
 [A,,A,][A,,A,][A,,A,] [A,,A,][A,,A,][A,,A,] | [D,A,]3 [D,A,]2 [D,A,D] | %15
 [E,G,D][E,G,F]>[E,G,E] [E,G,E][E,A,E]>[E,B,D] |[M:5/8] A,,-A,,- A,,3 |[M:1/8][K:treble] A | %18
[M:3/4] AG AB AB | c2 z E2 [A,E] | [A,A][A,B,A] [A,CA][CEA] [B,EA][A,EA] | [E,E]4- [E,E][E,G,] | %22
 [A,,A,][A,,A,] [A,,A,][A,,A,] [A,,A,][A,,A,] | [D,A,]3 [D,A,]2 [D,A,D] | %24
 [E,G,D][E,G,F]- [E,G,F]/[E,G,E]/[E,G,E] [E,A,E]>[E,B,D] | %25
[M:13/8] [A,,A,]-[A,,A,]- [A,,A,]3 z z z z z z z2 |] %26
V:3
 x6 | x6 | x6 | x6 | x6 | x6 | x6 | x6 | x6 | x6 | x6 | x6 | x6 | x6 | x6 | x6 |[M:5/8] x5 | %17
[M:1/8] x |[M:3/4] x6 | z2 A c2 c | x6 | x6 | x6 | x6 | x6 |[M:13/8] x13 |] %26

